X:2
T:Foxhunter's Reel, The
R:reel
M:4/4
L:1/8
K:A %transposed from G
e2cA eAcA|eAcA BAFA|e2cA eAcA|BdcA BAFA:|
~E3c cBAF|EAcA BAFA|~E3c cBAc|BdcA BAFA:|
afec ABce|aece fbbg|afec ABcA|Bcde fB~B2:|
eaag ~a3f|eaae faec|eaag ~a3e|faec BABc:|
A2cA eAcB|AccA BABc|A2cA eAce|faec BABc:|
</abc>
